svg/bookmark_minus_outline.svg

<?xml version="1.0" encoding="UTF-8"?><!DOCTYPE svg PUBLIC "-//W3C//DTD SVG 1.1//EN" "http://www.w3.org/Graphics/SVG/1.1/DTD/svg11.dtd"><svg xmlns="http://www.w3.org/2000/svg" xmlns:xlink="http://www.w3.org/1999/xlink" version="1.1" id="mdi-bookmark-minus-outline" width="24" height="24" viewBox="0 0 24 24"><path d="M9,11V9H15V11H9M19,5V21L12,18L5,21V5C5,3.89 5.9,3 7,3H17C18.11,3 19,3.9 19,5M17,5H7V18L12,15.82L17,18V5Z" /></svg>

<svg xmlns="http://www.w3.org/2000/svg" viewBox="0 0 24 24"><path d="M9 11V9h6v2zm10-6v16l-7-3-7 3V5a2 2 0 0 1 2-2h10a2 2 0 0 1 2 2m-2 0H7v13l5-2.18L17 18z"/></svg>
